public/ecosystem/qwik-newsletter.svg

<svg fill="none" height="108" viewBox="0 0 123 108" width="123" xmlns="http://www.w3.org/2000/svg"><path d="m23.8379 95.5752 29.5369-39.8416-20.112-36.4171c-1.104 1.8142-1.9615 4.2429-2.2815 6.8434l-7.7244 62.7303c-.32 2.5837-.0714 4.9455.581 6.685z" fill="#b0bdc6"/><path d="m121.284 2.71588-42.4825 51.92042 29.9015 50.5267c1.828-2.046 3.206-5.077 3.64-8.5942l10.523-85.4227c.437-3.54048-.223-6.51781-1.582-8.43022z" fill="#b0bdc6"/><path d="m62.6692 73.5374-9.2944-17.806-29.5369 39.8438c.6044 1.5958 1.5477 2.6774 2.732 2.8246l76.4101 9.4012c2.041.256 4.059-.775 5.722-2.638l-29.9005-50.5267z" fill="#cad5dd"/><path d="m116.192.55926-79.5081 15.72184c-1.2199.2454-2.4254 1.3939-3.4223 3.0354l20.1143 36.4149 9.2944 17.806 16.1323-18.9011 42.4824-51.92042c-1.221-1.70612-2.991-2.566979-5.093-2.15662z" fill="#dfe9ef"/><g fill="#18b6f6"><path d="m17.8955 78.9825c1.5823.0368 2.7253 1.3504 2.5424 2.9204l-1.3626 11.693c-.1818 1.5701-1.6147 2.6808-3.1814 2.4644l-12.20934-1.6816c-1.56672-.2163-2.66956-1.6737-2.44877-3.2405l1.35709-9.6334c.22079-1.5667 1.69496-2.8201 3.27506-2.7844z"/><path d="m21.8664 49.7377c1.5767-.1338 2.7074 1.0415 2.5156 2.6116l-1.6035 13.0277c-.194 1.5701-1.6448 2.8547-3.2271 2.8547h-16.3954c-1.58234 0-2.677371-1.279-2.435393-2.8413l1.737333-11.2079c.24198-1.5623 1.72953-2.9506 3.30741-3.0855z"/><path d="m26.0235 18.5526c1.5567-.2832 2.6707.7694 2.4778 2.3395l-1.6181 13.1482c-.194 1.5701-1.6381 2.9952-3.2104 3.1658l-20.31162 2.2191c-1.5723.1706-2.646146-.9646-2.387441-2.5257l1.890101-11.3864c.25871-1.5589 1.74515-3.0676 3.30183-3.352z"/><path d="m74.7547 48.1498-5.1294-6.0963-.0748.0044v-.0579l-9.3011-10.9861 2.1154-2.519-1.2556-8.477-5.493 8.99c-.8665 1.1597-1.0237 2.984-.4048 4.3333l3.3107 7.1255c.532 1.1519 1.5121 1.9247 2.596 2.0406l1.8567.1963z"/></g><path d="m77.799 27.8225-1.1419-2.0652-.5854-1.0381-.2297-.4026-.0246.0268-2.9516-4.9991c-.7104-1.2132-2.015-1.8165-3.3889-1.5868l-2.2826.4282-6.1888.9947c-1.0806.1796-2.0418 1.0092-2.5648 2.1789l-3.1747 8.2429 5.8621-9.6089 9.1383 10.7229-1.7641 1.9693 1.0482 9.3724.0112-.0223v.0235l-.0212-.0023.0212.0257.8341.9735 4.2764 5.0079c.1896.213.4974.0413.3669-.2119l-2.7041-5.9167 4.8161-8.9855.1617-.1874c.0625-.0747.1249-.1505.174-.2252 1.008-1.3839 1.1474-3.2405.3122-4.7147z" fill="#ac7ef4"/><path d="m70.2988 30.6682-9.1707-10.6648 1.1932 8.4391-2.1142 2.5291 9.3223 11.0707-.9234-9.3356z" fill="#fff"/></svg>

<svg width="123" height="108" viewBox="0 0 123 108" fill="none" xmlns="http://www.w3.org/2000/svg">
    <path d="M23.8379 95.5752L53.3748 55.7336L33.2628 19.3165C32.1588 21.1307 31.3013 23.5594 30.9813 26.1599L23.2569 88.8902C22.9369 91.4739 23.1855 93.8357 23.8379 95.5752Z" fill="#B0BDC6"/>
    <path d="M121.284 2.71588L78.8015 54.6363L108.703 105.163C110.531 103.117 111.909 100.086 112.343 96.5688L122.866 11.1461C123.303 7.60562 122.643 4.62829 121.284 2.71588Z" fill="#B0BDC6"/>
    <path d="M62.6692 73.5374L53.3748 55.7314L23.8379 95.5752C24.4423 97.171 25.3856 98.2526 26.5699 98.3998L102.98 107.801C105.021 108.057 107.039 107.026 108.702 105.163L78.8015 54.6363L62.6692 73.5374Z" fill="#CAD5DD"/>
    <path d="M116.192 0.55926L36.6839 16.2811C35.464 16.5265 34.2585 17.675 33.2616 19.3165L53.3759 55.7314L62.6703 73.5374L78.8026 54.6363L121.285 2.71588C120.064 1.00976 118.294 0.148901 116.192 0.55926Z" fill="#DFE9EF"/>
    <path d="M17.8955 78.9825C19.4778 79.0193 20.6208 80.3329 20.4379 81.9029L19.0753 93.5959C18.8935 95.166 17.4606 96.2767 15.8939 96.0603L3.68456 94.3787C2.11784 94.1624 1.015 92.705 1.23579 91.1382L2.59288 81.5048C2.81367 79.9381 4.28784 78.6847 5.86794 78.7204L17.8955 78.9825Z" fill="#18B6F6"/>
    <path d="M21.8664 49.7377C23.4431 49.6039 24.5738 50.7792 24.382 52.3493L22.7785 65.377C22.5845 66.9471 21.1337 68.2317 19.5514 68.2317H3.156C1.57366 68.2317 0.478629 66.9527 0.720607 65.3904L2.45794 54.1825C2.69992 52.6202 4.18747 51.2319 5.76535 51.097L21.8664 49.7377Z" fill="#18B6F6"/>
    <path d="M26.0235 18.5526C27.5802 18.2694 28.6942 19.322 28.5013 20.8921L26.8832 34.0403C26.6892 35.6104 25.2451 37.0355 23.6728 37.2061L3.36118 39.4252C1.78888 39.5958 0.715034 38.4606 0.973739 36.8995L2.86384 25.5131C3.12255 23.9542 4.60899 22.4455 6.16567 22.1611L26.0235 18.5526Z" fill="#18B6F6"/>
    <path d="M74.7547 48.1498L69.6253 42.0535L69.5505 42.0579V42L60.2494 31.0139L62.3648 28.4949L61.1092 20.0179L55.6162 29.0079C54.7497 30.1676 54.5925 31.9919 55.2114 33.3412L58.5221 40.4667C59.0541 41.6186 60.0342 42.3914 61.1181 42.5073L62.9748 42.7036L74.7547 48.1498Z" fill="#18B6F6"/>
    <path d="M77.799 27.8225L76.6571 25.7573L76.0717 24.7192L75.842 24.3166L75.8174 24.3434L72.8658 19.3443C72.1554 18.1311 70.8508 17.5278 69.4769 17.7575L67.1943 18.1857L61.0055 19.1804C59.9249 19.36 58.9637 20.1896 58.4407 21.3593L55.266 29.6022L61.1281 19.9933L70.2664 30.7162L68.5023 32.6855L69.5505 42.0579L69.5617 42.0356V42.0591L69.5405 42.0568L69.5617 42.0825L70.3958 43.056L74.6722 48.0639C74.8618 48.2769 75.1696 48.1052 75.0391 47.852L72.335 41.9353L77.1511 32.9498L77.3128 32.7624C77.3753 32.6877 77.4377 32.6119 77.4868 32.5372C78.4948 31.1533 78.6342 29.2967 77.799 27.8225Z" fill="#AC7EF4"/>
    <path d="M70.2988 30.6682L61.1281 20.0034L62.3213 28.4425L60.2071 30.9716L69.5294 42.0423L68.606 32.7067L70.2988 30.6682Z" fill="white"/>
</svg>
